X:713
T:Haggis, The 
C:Joe Buchanan's Scottish Tome - Page 234.2
I:234 2
C:Athole Collection
R:Reel
Z:Carl Allison
L:1/8
M:4/4
K:C
F | "C"(E/F/G) (Gc) GEEF | "C" (E/2F/G) "G"(GB) "C"{AB}c2 (ce) | ("C"EF/G/) (Gc) GBGE | "Bb"D/D/D (_BD) {E}F2 F :|
g | "C"ecgc eccg | "C"ecge "F"f2 (fa)  | "C"ecgc "F"ac"C"gc | "Bb"d/d/d (_bd) "F"f2 (fa) |
"C"ecgc eccg | "C"ecge "F"fa"G"gf  | "C"ec"G"dB "Am"cA"C"GE | "Bb"D/D/D _BE {DE}F2 F :|

